X:1
L:1/8
M:4/4
K:C
[M:2/2][K:D] .abc (3.d.d.d (dA) BdAF | AFAg fdBc | (3.d.d.d (dA) BdAF | GFEF GABc |{e} dcdA BdAF | 
 ABde fdef |{a} gfge fedf | edce dAFA || abaf afdf | gefd edBd | afdf abaf | edef d2 (df) | 
 afdf abaf | gbfa edBe | (3.d.d.d (dA) BdAF | ABde fe d2 |]
